X:511
T:Alredor
R:Xiraldilla
C:Tradicional
S:Música Tradicional Asturiana, (C) Tello & Tito. Asturies, 2001.
S:http://pagina.de/MusTradAst <telloytito@asturies.org>
O:Somiedu
A:Asturies
Z:Danzas y Bailes I
M:2/4
L:1/8
Q:1/4=100
K:C
|EE EF|G2 GF|E3/2D/ C2|EE EF|G2 GF|D4|DC B,C|D2 C2|
B,2 G,2|B,B, B,C|D2_E2|C4-|C2 z2|


